**kern	**kern	**dynam
*part1	*part1	*part1
*staff2	*staff1	*
*I"Piano	*	*
*clefG2	*clefG2	*
*k[b-]	*k[b-]	*
=1	=1	=1
4A	12r	>
.	12gL	.
.	12b-J 12ee	.
4AA	12r	.
.	12aL 12dd	.
.	12fJ	.
=	=	=
4A	12r	.
.	12eL	.
.	12gJ 12cc#X	.
4AA	12r	.
.	12fL 12b-	.
.	12dJ	.
=	=	=
4A	12r	.
.	12c#XL	.
.	12eJ 12a	.
4AA	12r	.
.	12AL	.
.	12c#J 12e 12g	.
=	=	=
2DD 2D	12r	] p
.	12AL	>
.	12dJ	.
.	12fL	.
.	12d	.
.	12AJ	.
=	=	=
2BB- 2D	12r	] pp <
.	12GL	.
.	12dJ	.
.	12gL	.
.	12d	.
.	12GJ	.
=	=	=
2AA 2E	12r	[ >
.	12AL	.
.	12c#XJ	.
.	12eL	.
.	12c#	.
.	12AJ	.
=	=	=
2BB- 2D	12r	] pp <
.	12GL	.
.	12dJ	.
.	12gL	.
.	12d	.
.	12GJ	.
=	=	=
*-	*-	*-
!!!system-decoration: {(s1,s2)}
